X:1
T:O esca viatorum
T:Heinrich Isaac
T:Source :  Seconda Anthologia Vocalis---Torino Editor : André Vierendeels (17/05/17).
T:Notes : Original clefs : C4, C4, F4 Based on "Innsbruck, ich musz dich lassen"
T:O esca viatorum
T:©
T:©
C:Heinrich Isaac
Z:©
%%score [ 1 2 3 ]
L:1/8
Q:1/4=120
M:4/4
K:F
V:1 treble-8 nm="Tenor 1" snm="T 1"
V:2 treble-8 nm="Tenor 2" snm="T 2"
V:3 bass nm="Bass" snm="B"
V:1
 z4 z2 A2 |: F2 G2 A2 c2 | B4 A2 A2 | c2 A2 G2 A2 | F4 E2 E2 | F2 G2 A2 A2 | G6 A2 | F2 G2 A2 c2 | %8
w: O|es- ca vi- a-|to- rum, O|pa- nis an- ge-|lo- rum, O|man- na coe- li-|tum: e-|su- ri- en- tes|
w: O|lym- pha fons a-|mo- ris, qui|pu- ro Sal- va-|to- ris, e|cor- de pro- flu-|is te|si- ti- en- tes|
w: O|Je- su tu- um|vul- tum quem|co- li- mus oc-|cul- tum, sub|pa- nis spe- ci-|e, fac|ut re- mo- to|
 B4 A2 A2 | c2 A2 G2 A2 | F4 E2 C2 | F2 G2 A2 cB |1 A2 G2 A2 A2 :|2 A2 G2 A4 || A4 G4 | F8 |] %16
w: ci- ba dul-|ce- di- ne non|pri- va cor-|* * da quae- *|ren- ti- um O|ren- ti- um.|||
w: po- ta haec|so- la no- stra|vo- ta his|u- * * na _|suf- fi- cis, O|suf- fi- cie.|||
w: ve- lo post|li- be- ra in|coe- lo cer-|na- * * mus _|fa- ci- e, O|fa- ci- e.|A- *|men.|
V:2
 z4 z2 C2 |: C2 E2 F2 F2 | F3 E F2 F2 | G2 F2 E2 E2 | D4 ^C2 =C2 | D2 E2 F2 F2 | E6 E2 | %7
w: O|es- ca vi- a-|to- * rum, O|pa- nis an- ge-|lo- rum, O|man- ne coe- li-|tum: e-|
w: O|lym- pha fons a-|mo- * ris, qui|pu- ro Sal- va-|to- ris, e|cor- de pro- flu-|is te|
w: O|Je- su tu- um|vul- * tum quem|co- li- mus oc-|cul- tum, sub|pa- nis spe- ci-|e, fac|
 D2 E2 F2 F2 | F3 E F2 F2 | G2 F2 E2 E2 | D4 C2 C2 | C2 E2 F2 FG |1 F2 E2 F2 C2 :|2 F2 E2 F4 || %14
w: su- ri- en- tes|ci- * ba dul-|ce- di- ne non|pri- va cor-|* * da quae- *|ren- ti- um, O|ren- ti- um.|
w: si- ti- en- tes|po- * ta haec|so- la no- stra|vo- ta his|u- * * na _|suf- fi- cis, O|suf- fi- cis.|
w: ut re- mo- to|ve- * lo post|li- be- ra in|coe- lo cer-|na- * * mus _|fa- ci- e O|fa- ci- e.|
 F4- FE/D/ E2 | F8 |] %16
w: ||
w: ||
w: A _ _ _ _|men.|
V:3
 z4 z2 F,,2 |: A,,2 C,2 F,2 A,,2 | G,,2 C,2 F,,2 F,2 | E,2 F,2 C,2 ^C,2 | D,2 F,,G,, A,,2 A,,2 | %5
w: O|es- ca vi- a-|to- * rum, O|pa- nis an- ge-|lo- * * rum, O|
w: O|lym- pha fons a-|mo- * ris, qui|pu- ro Sal- va-|to- * * ris, e|
w: O|Je- su tu- um|vul- * tum quem|co- liu- mus oc-|cul- * * tum, sub|
 D,2 C,2 F,2 A,,B,, | C,6 ^C,2 | D,2 C,2 F,2 A,,2 | G,,2 C,2 F,,2 F,2 | E,2 F,2 C,2 ^C,2 | %10
w: man- ne coe- li- *|tum: e-|su- ri- en- tes|ci- * ba dul-|ce- di- ne non|
w: cor- de pro- flu- *|is te|si- ti- en- tes|po- * ta haec|so- la no- stra|
w: pa- nis spe- ci- *|e, fac|ut re- mo- to|ve- * lo post|li- be- ra in|
 D,2 =B,,2 C,2 C,2 | A,,2 C,2 F,,2 A,,B,, |1 C,3 C, F,,2 F,,2 :|2 C,3 C, F,,4 || F,,2 A,,2 C,4 | %15
w: pri- * va cor-|* * da quae- *|ren- ti- um, O|ren- ti- um.||
w: vo- * ta his|u- * * na _|suf- fi- cis, O|suf- fi- cis.||
w: coe- * lo cer-|na- * * mus _|fa- ci- e, O|fa- ci- e.|A- * *|
 F,,8 |] %16
w: |
w: |
w: men|

